**harm	**harte	**timestamp	**phrase	**leadinstrument	**kern
*M4/4	*M4/4	*	*	*	*
*C:	*C:	*	*	*	*C:
1r;	N	0	.	r	1r;
=1	=1	=1	=1	=1	=1
*>A_intro	*>A_intro	*>A_intro	*>A_intro	*>A_intro	*>A_intro
2.I	C:maj	0.418	newline	r	2C 2e 2g
4IVc	F:maj/5	2.022	.	r	4f 4a 4C
=2	=2	=2	=2	=2	=2
2.Vf	G:maj(11)/4	2.556	.	r	2G 2b 2dd
4IVc	F:maj/5	4.16	.	r	4f 4a 4C
=3	=3	=3	=3	=3	=3
2.I	C:maj	4.695	.	r	2C 2e 2g
4IVc	F:maj/5	6.299	.	r	4f 4a 4C
=4	=4	=4	=4	=4	=4
2.Vf	G:maj(11)/4	6.833	.	r	2G 2b 2dd
4IVc	F:maj/5	8.437	.	r	4f 4a 4C
=5	=5	=5	=5	=5	=5
*>B_verse	*>B_verse	*>B_verse	*>B_verse	*>B_verse	*>B_verse
2.I	C:maj	8.972	newline	voice	2C 2e 2g
4IV	F:maj	10.542	.	voice	4F 4a 4cc
=6	=6	=6	=6	=6	=6
2.I	C:maj	11.065	.	voice	2C 2e 2g
4IV	F:maj	12.635	.	voice	4F 4a 4cc
=7	=7	=7	=7	=7	=7
2.I	C:maj	13.158	.	voice	2C 2e 2g
4IV	F:maj	14.728	.	voice	4F 4a 4cc
=8	=8	=8	=8	=8	=8
2.I	C:maj	15.252	.	voice	2C 2e 2g
4IV	F:maj	16.822	.	voice	4F 4a 4cc
=9	=9	=9	=9	=9	=9
2.I	C:maj	17.345	newline	voice	2C 2e 2g
4IV	F:maj	18.908	.	voice	4F 4a 4cc
=10	=10	=10	=10	=10	=10
2.I	C:maj	19.43	.	voice	2C 2e 2g
4IV	F:maj	20.993	.	voice	4F 4a 4cc
=11	=11	=11	=11	=11	=11
2.V	G:maj	21.514	.	voice	2G 2b 2dd
4Ic	C:maj/5	23.077	.	voice	4c 4e 4G
=12	=12	=12	=12	=12	=12
2.I	C:maj	23.598	.	voice	2C 2e 2g
4Ic	C:maj/5	25.162	.	voice	4c 4e 4G
=13	=13	=13	=13	=13	=13
2.IV	F:maj	25.683	newline	voice	2F 2a 2cc
4vf	G:min/4	27.261	.	voice	4G 4b- 4dd
=14	=14	=14	=14	=14	=14
2.IV	F:maj	27.787	.	voice	2F 2a 2cc
4vf	G:min/4	29.366	.	voice	4G 4b- 4dd
=15	=15	=15	=15	=15	=15
2.IV	F:maj	29.892	.	voice	2F 2a 2cc
4vf	G:min/4	31.471	.	voice	4G 4b- 4dd
=16	=16	=16	=16	=16	=16
1IV	F:maj	31.997	.	voice	1F 1a 1cc
=17	=17	=17	=17	=17	=17
2.I	C:maj	34.102	newline	voice	2C 2e 2g
4IVc	F:maj/5	35.662	.	voice	4f 4a 4C
=18	=18	=18	=18	=18	=18
1I	C:maj	36.182	.	voice	1C 1e 1g
=19	=19	=19	=19	=19	=19
1V	G:maj	38.262	newline	voice	1G 1b 1dd
=20	=20	=20	=20	=20	=20
1V	G:maj	40.354	.	voice	1G 1b 1dd
=21	=21	=21	=21	=21	=21
1IV	F:maj	42.445	.	voice	1F 1a 1cc
=22	=22	=22	=22	=22	=22
1I	C:maj	44.537	.	voice	1C 1e 1g
=23	=23	=23	=23	=23	=23
1IV	F:maj	46.629	newline	voice	1F 1a 1cc
=24	=24	=24	=24	=24	=24
1#ivo	F#:dim	48.738	.	voice	1F# 1a 1cc
=25	=25	=25	=25	=25	=25
1ii7f	D:min7/4	50.846	.	voice	1D 1f 1a 1cc
=26	=26	=26	=26	=26	=26
2V	G:maj	52.955	.	voice	2G 2b 2dd
4IV	F:maj	54.009	.	voice	4F 4a 4cc
4V	G:maj	54.536	.	voice	4G 4b 4dd
=27	=27	=27	=27	=27	=27
*>C_chorus	*>C_chorus	*>C_chorus	*>C_chorus	*>C_chorus	*>C_chorus
2.I	C:maj	55.063	newline	voice	2C 2e 2g
4IV	F:maj	56.638	.	voice	4F 4a 4cc
=28	=28	=28	=28	=28	=28
1I	C:maj	57.163	.	voice	1C 1e 1g
=29	=29	=29	=29	=29	=29
1I7	C:maj7	59.264	.	voice	1C 1e 1g 1b
=30	=30	=30	=30	=30	=30
1I	C:maj6	61.364	.	voice	1C 1e 1g
=31	=31	=31	=31	=31	=31
1V	G:sus4	63.465	newline	voice	1G 1b 1dd
=32	=32	=32	=32	=32	=32
2V	G:maj	65.519	.	voice	2G 2b 2dd
4IV	F:maj	66.547	.	voice	4F 4a 4cc
4V	G:maj	67.06	.	voice	4G 4b 4dd
=33	=33	=33	=33	=33	=33
2.I	C:maj	67.574	newline	voice	2C 2e 2g
4IV	F:maj	69.154	.	voice	4F 4a 4cc
=34	=34	=34	=34	=34	=34
1I	C:maj	69.681	.	voice	1C 1e 1g
=35	=35	=35	=35	=35	=35
1I7	C:maj7	71.787	.	voice	1C 1e 1g 1b
=36	=36	=36	=36	=36	=36
1I	C:maj6	73.893	.	voice	1C 1e 1g
=37	=37	=37	=37	=37	=37
1V	G:maj	76	newline	voice	1G 1b 1dd
=38	=38	=38	=38	=38	=38
1V	G:maj	78.055	.	voice	1G 1b 1dd
=39	=39	=39	=39	=39	=39
1IV	F:maj	80.11	newline	voice	1F 1a 1cc
=40	=40	=40	=40	=40	=40
1IV	F:maj	82.154	.	voice	1F 1a 1cc
=41	=41	=41	=41	=41	=41
1V	G:maj	84.198	.	voice	1G 1b 1dd
=42	=42	=42	=42	=42	=42
2V	G:maj	86.242	.	voice	2G 2b 2dd
4IV	F:maj	87.264	.	voice	4F 4a 4cc
4V	G:maj	87.775	.	voice	4G 4b 4dd
=43	=43	=43	=43	=43	=43
*>B_verse	*>B_verse	*>B_verse	*>B_verse	*>B_verse	*>B_verse
2.I	C:maj	88.287	newline	voice	2C 2e 2g
4IV	F:maj	89.843	.	voice	4F 4a 4cc
=44	=44	=44	=44	=44	=44
2.I	C:maj	90.362	.	voice	2C 2e 2g
4IV	F:maj	91.918	.	voice	4F 4a 4cc
=45	=45	=45	=45	=45	=45
2.I	C:maj	92.437	.	voice	2C 2e 2g
4IV	F:maj	93.994	.	voice	4F 4a 4cc
=46	=46	=46	=46	=46	=46
2.I	C:maj	94.512	.	voice	2C 2e 2g
4IV	F:maj	96.069	.	voice	4F 4a 4cc
=47	=47	=47	=47	=47	=47
2.I	C:maj	96.588	newline	voice	2C 2e 2g
4IV	F:maj	98.139	.	voice	4F 4a 4cc
=48	=48	=48	=48	=48	=48
2.I	C:maj	98.657	.	voice	2C 2e 2g
4IV	F:maj	100.208	.	voice	4F 4a 4cc
=49	=49	=49	=49	=49	=49
2.V	G:maj	100.726	.	voice	2G 2b 2dd
4Ic	C:maj/5	102.277	.	voice	4c 4e 4G
=50	=50	=50	=50	=50	=50
2.I	C:maj	102.795	.	voice	2C 2e 2g
4Ic	C:maj/5	104.346	.	voice	4c 4e 4G
=51	=51	=51	=51	=51	=51
2.IV	F:maj	104.864	newline	voice	2F 2a 2cc
4vf	G:min/4	106.423	.	voice	4G 4b- 4dd
=52	=52	=52	=52	=52	=52
2.IV	F:maj	106.943	.	voice	2F 2a 2cc
4vf	G:min/4	108.502	.	voice	4G 4b- 4dd
=53	=53	=53	=53	=53	=53
2.IV	F:maj	109.022	.	voice	2F 2a 2cc
4vf	G:min/4	110.581	.	voice	4G 4b- 4dd
=54	=54	=54	=54	=54	=54
1IV	F:maj	111.101	.	voice	1F 1a 1cc
=55	=55	=55	=55	=55	=55
2.I	C:maj	113.18	newline	voice	2C 2e 2g
4IVc	F:maj/5	114.739	.	voice	4f 4a 4C
=56	=56	=56	=56	=56	=56
1I	C:maj	115.259	.	voice	1C 1e 1g
=57	=57	=57	=57	=57	=57
1V	G:maj	117.339	newline	voice	1G 1b 1dd
=58	=58	=58	=58	=58	=58
1V	G:maj	119.393	.	voice	1G 1b 1dd
=59	=59	=59	=59	=59	=59
1IV	F:maj	121.447	.	voice	1F 1a 1cc
=60	=60	=60	=60	=60	=60
1I	C:maj	123.502	.	voice	1C 1e 1g
=61	=61	=61	=61	=61	=61
1IV	F:maj	125.556	newline	voice	1F 1a 1cc
=62	=62	=62	=62	=62	=62
1#ivo	F#:dim	127.659	.	voice	1F# 1a 1cc
=63	=63	=63	=63	=63	=63
1ii7f	D:min7/4	129.762	.	voice	1D 1f 1a 1cc
=64	=64	=64	=64	=64	=64
2V	G:maj	131.864	.	voice	2G 2b 2dd
4IV	F:maj	132.916	.	voice	4F 4a 4cc
4V	G:maj	133.441	.	voice	4G 4b 4dd
=65	=65	=65	=65	=65	=65
*>C_chorus	*>C_chorus	*>C_chorus	*>C_chorus	*>C_chorus	*>C_chorus
2.I	C:maj	133.967	newline	voice	2C 2e 2g
4IV	F:maj	135.543	.	voice	4F 4a 4cc
=66	=66	=66	=66	=66	=66
1I	C:maj	136.068	.	voice	1C 1e 1g
=67	=67	=67	=67	=67	=67
1I7	C:maj7	138.169	.	voice	1C 1e 1g 1b
=68	=68	=68	=68	=68	=68
1I	C:maj6	140.27	.	voice	1C 1e 1g
=69	=69	=69	=69	=69	=69
1V	G:sus4	142.371	newline	voice	1G 1b 1dd
=70	=70	=70	=70	=70	=70
2V	G:maj	144.414	.	voice	2G 2b 2dd
4IV	F:maj	145.435	.	voice	4F 4a 4cc
4V	G:maj	145.946	.	voice	4G 4b 4dd
=71	=71	=71	=71	=71	=71
2.I	C:maj	146.457	newline	voice	2C 2e 2g
4IV	F:maj	148.018	.	voice	4F 4a 4cc
=72	=72	=72	=72	=72	=72
1I	C:maj	148.539	.	voice	1C 1e 1g
=73	=73	=73	=73	=73	=73
1I7	C:maj7	150.62	.	voice	1C 1e 1g 1b
=74	=74	=74	=74	=74	=74
1I	C:maj6	152.702	.	voice	1C 1e 1g
=75	=75	=75	=75	=75	=75
1V	G:maj	154.783	newline	voice	1G 1b 1dd
=76	=76	=76	=76	=76	=76
1V	G:maj	156.837	.	voice	1G 1b 1dd
=77	=77	=77	=77	=77	=77
1IV	F:maj	158.89	newline	voice	1F 1a 1cc
=78	=78	=78	=78	=78	=78
1IV	F:maj	160.904	.	voice	1F 1a 1cc
=79	=79	=79	=79	=79	=79
1V	G:sus4	162.919	.	voice	1G 1b 1dd
=80	=80	=80	=80	=80	=80
2V	G:maj	164.933	.	voice	2G 2b 2dd
4IV	F:maj	165.94	.	voice	4F 4a 4cc
4V	G:maj	166.444	.	voice	4G 4b 4dd
=81	=81	=81	=81	=81	=81
*>C_fadeout	*>C_fadeout	*>C_fadeout	*>C_fadeout	*>C_fadeout	*>C_fadeout
2.I	C:maj	166.947	newline	voice	2C 2e 2g
4IV	F:maj	168.503	.	voice	4F 4a 4cc
=82	=82	=82	=82	=82	=82
1I	C:maj	169.021	.	voice	1C 1e 1g
=83	=83	=83	=83	=83	=83
1I7	C:maj7	171.095	.	voice	1C 1e 1g 1b
=84	=84	=84	=84	=84	=84
1I	C:maj6	173.169	.	voice	1C 1e 1g
=85	=85	=85	=85	=85	=85
1V	G:sus4	175.243	newline	voice	1G 1b 1dd
=86	=86	=86	=86	=86	=86
2V	G:maj	177.307	.	voice	2G 2b 2dd
4IV	F:maj	178.339	.	voice	4F 4a 4cc
4V	G:maj	178.855	.	voice	4G 4b 4dd
=87	=87	=87	=87	=87	=87
2.I	C:maj	179.371	newline	voice	2C 2e 2g
4IV	F:maj	180.925	.	voice	4F 4a 4cc
=88	=88	=88	=88	=88	=88
1I	C:maj	181.443	.	voice	1C 1e 1g
=89	=89	=89	=89	=89	=89
1I7	C:maj7	183.515	.	voice	1C 1e 1g 1b
=90	=90	=90	=90	=90	=90
1I	C:maj6	185.588	.	voice	1C 1e 1g
=91	=91	=91	=91	=91	=91
1V	G:sus4	187.66	newline	voice	1G 1b 1dd
=92	=92	=92	=92	=92	=92
2V	G:maj	189.519	.	voice	2G 2b 2dd
4IV	F:maj	190.449	.	voice	4F 4a 4cc
4V	G:maj	190.914	.	voice	4G 4b 4dd
1r;	N	191.379	.	r	1r;
1r;	N	195.344	.	r	1r;
*-	*-	*-	*-	*-	*-
!!!OTL: Rhinestone Cowboy
!!!COC: Glen Campbell
!!!BillboardChartDate: 1975/10/11
!!!BillboardPeak: 1
!!!BillboardWeeksOnChart: 23
!!!SampleTargetRank: 14
!!!SampleActualRank: 15
!!!SampleID#: 0246
!!!RDF**harmony: **recip + pitch class of root + harmonic quality
!!!RDF**harte: Chris Harte's syntax, used by MIREX
!!!RDF**phrase: newline = linebreak in original McGill transcription
!!!RDF**timestamp: McGill audio timestamp in seconds
!!!RDF**leadinstrument: original McGill primary instrumentation annotation
!!!RDT: 2017/01/12/
!!!ENC: Nathaniel Condit-Schultz
!!!EST: Awating manual error checking and editing.
